X: 25
T:Squirrel in the Tree
M:6/8
L:1/8
S:Arr. Barbara McOwen
R:Jig
K:G
A|"G"BBB B2B|"G"B2A GAB|"C"ccc c2B|"Am7"c2d efg|"D"fff fff|
"D7"fed cBA|"G"GBd "C"e2d|"G"B3 Bdc|
"G"BBB B2B|"G"B2A GAB|"C"ccc c2B|"Am7"c2d efg|"D"fff fff|
"D7"fed cBA|"G"GBd "D7"b2a|"G"g3 d2||!
g|"G"bbb b2 b|"G"b2a gfe|"G"ddd d2e|"G"d2 c Bdg|"D"fff fff|
"D7"fed cBA|"G"GBd "C"e2d|"G"B3 Bdg|
"G"bbb b2 b|"G"b2a gfe|"G"ddd d2e|"G"d2 c Bdg|"D"fff fff|
"D7"fed cBA|"G"GBd "D7"bfa|"G"g3 g2||
